img/icons/socials-youtube.svg

<svg width="32" height="32" viewBox="0 0 32 32" fill="none" xmlns="http://www.w3.org/2000/svg">
<g clip-path="url(#clip0_12756_2224)">
<path d="M14.0071 18.999L19.2117 16.0015L14.0071 13.0039V18.999Z" fill="white"/>
<path d="M16 0C7.16479 0 0 7.16479 0 16C0 24.8352 7.16479 32 16 32C24.8352 32 32 24.8352 32 16C32 7.16479 24.8352 0 16 0ZM25.9976 16.0164C25.9976 16.0164 25.9976 19.2612 25.5859 20.8259C25.3552 21.6824 24.6799 22.3577 23.8235 22.5881C22.2588 23 16 23 16 23C16 23 9.75757 23 8.17651 22.5718C7.32007 22.3413 6.64478 21.6658 6.41406 20.8093C6.0022 19.2612 6.0022 16 6.0022 16C6.0022 16 6.0022 12.7554 6.41406 11.1907C6.64453 10.3342 7.33643 9.64233 8.17651 9.41187C9.74121 9 16 9 16 9C16 9 22.2588 9 23.8235 9.42822C24.6799 9.65869 25.3552 10.3342 25.5859 11.1907C26.0142 12.7554 25.9976 16.0164 25.9976 16.0164Z" fill="white"/>
</g>
<defs>
<clipPath id="clip0_12756_2224">
<rect width="32" height="32" fill="white"/>
</clipPath>
</defs>
</svg>

<svg width="32" height="32" fill="none" xmlns="http://www.w3.org/2000/svg"><g clip-path="url(#a)" fill="#fff"><path d="m14.007 18.999 5.205-2.997-5.205-2.998v5.995Z"/><path d="M16 0C7.165 0 0 7.165 0 16s7.165 16 16 16 16-7.165 16-16S24.835 0 16 0Zm9.998 16.016s0 3.245-.412 4.81a2.505 2.505 0 0 1-1.762 1.762C22.258 23 16 23 16 23s-6.242 0-7.823-.428a2.506 2.506 0 0 1-1.763-1.763C6.002 19.261 6.002 16 6.002 16s0-3.245.412-4.81a2.556 2.556 0 0 1 1.763-1.778C9.74 9 16 9 16 9s6.259 0 7.823.428c.857.23 1.532.906 1.763 1.763.428 1.564.412 4.825.412 4.825Z"/></g><defs><clipPath id="a"><path fill="#fff" d="M0 0h32v32H0z"/></clipPath></defs></svg>
